Numix-Circle/48x48/apps/goa-account-kerberos.svg

<svg width="48" xmlns="http://www.w3.org/2000/svg" height="48" viewBox="0 0 48 48" xmlns:xlink="http://www.w3.org/1999/xlink">
<path style="fill:#791918;stroke:#791918;stroke-width:2" d="M 158.009956 446.41925 C 185.385632 304.104569 111.607216 258.672597 42.359054 312.582615 L 10.970868 293.102525 L 66.498834 230.196718 L 67.728474 200.232326 L 120.861877 166.320142 L 107.529988 132.34324 C 130.310692 142.309798 151.40873 140.821286 159.627904 164.313887 C 208.748797 170.267934 255.863434 221.265646 253.663025 255.17783 C 284.274596 166.320142 327.18257 118.881915 199.235264 54.940621 L 195.222754 21.028437 L 275.343525 41.479296 L 300.712945 28.017971 L 338.572921 51.445854 L 365.883879 30.994995 C 358.11773 50.475085 375.526847 55.91139 361.094754 72.414456 C 401.802318 106.326641 389.05289 212.7876 393.453708 256.73106 C 404.84406 222.236415 431.44312 183.793977 477.651707 173.244958 C 481.27591 152.276356 510.787276 152.341074 527.67865 137.326519 L 522.177628 170.785677 L 568.903958 202.691606 L 569.486419 233.173741 L 630.256536 300.609802 L 587.672152 321.060661 C 486.712214 243.140299 457.45972 344.61798 487.877137 447.390019 Z " transform="matrix(.06036 0 0 .06036 4.64641 9.86358)"/>
</svg>

<svg xmlns="http://www.w3.org/2000/svg" viewBox="0 0 48 48">
 <path d="m 158.01 446.42 c 27.376 -142.31 -46.4 -187.75 -115.65 -133.84 l -31.388 -19.48 l 55.53 -62.906 l 1.23 -29.964 l 53.13 -33.912 l -13.332 -33.977 c 22.781 9.967 43.879 8.478 52.1 31.971 c 49.12 5.954 96.24 56.952 94.04 90.86 c 30.612 -88.86 73.52 -136.3 -54.43 -200.24 l -4.01 -33.912 l 80.12 20.451 l 25.369 -13.461 l 37.86 23.428 l 27.311 -20.451 c -7.766 19.48 9.643 24.916 -4.789 41.42 c 40.708 33.912 27.958 140.37 32.359 184.32 c 11.39 -34.495 37.989 -72.937 84.2 -83.49 c 3.624 -20.969 33.14 -20.904 50.03 -35.918 l -5.501 33.459 l 46.726 31.906 l 0.582 30.482 l 60.77 67.44 l -42.584 20.451 c -100.96 -77.92 -130.21 23.557 -99.8 126.33 Z" transform="matrix(.06036 0 0 .06036 4.64641 9.86358)" style="fill:#791918;stroke:#791918;stroke-width:2"/>
</svg>
